X: 19
T: Trip To Pakistan, The
C: Niall Kenny
Z: DomW
S: https://thesession.org/tunes/112#setting52422
R: reel
M: 4/4
L: 1/8
K: Bmin
|:Bdf(B d3)(f|e2)ed cd(ef)|Bdf(B d3)(f|e)dcd B4:|
|:Bdf(B g3)(e|f2)fg fe(dc)|Bdf(B g3)e|fedf e2a2:|
|:(cd)f(c d)f(cd)|(Bc)d(B c)d(Bc)|(Ac)e(A c)e(Ac)|edcd B4:|

